src/Assets/Amanda.svg

<svg width="67" height="20" viewBox="0 0 67 20" fill="none" xmlns="http://www.w3.org/2000/svg">
<path d="M5.376 0.464C5.376 0.464 4.992 0.223999 3.984 0.391999L0.336 16.544C0.336 16.544 1.08 16.784 1.512 16.664L2.664 10.88L7.32 10.688L8.88 16.904C8.88 16.904 9.648 16.952 10.152 16.688L5.376 0.464ZM2.88 9.944L4.752 2.096L7.2 9.824L2.88 9.944ZM11.6016 5.528L11.7696 16.832L13.3296 16.808C13.3296 16.808 12.7776 9.896 14.0256 7.232C14.0256 7.232 16.0176 3.536 17.1216 8.096L16.8816 16.64L18.2016 16.592L18.2976 8.024C18.2976 8.024 20.6256 3.344 22.2576 8.024C22.2576 8.024 22.5696 13.304 22.2816 16.976H23.5776V16.832L23.3616 8.264C23.3616 8.264 22.7136 2.432 17.9136 6.68C17.9136 6.68 15.4896 2.84 12.9456 6.776L12.8736 5.408C12.8736 5.408 12.2016 4.472 11.6016 5.528ZM33.5993 5.12C33.5993 5.12 24.5512 3.536 25.1513 12.656C25.1513 12.656 26.5193 18.56 30.7913 16.064C30.7913 16.064 31.9673 15.656 33.3113 11.6C33.3113 11.6 33.0953 15.968 33.4073 16.688L34.6793 16.832C34.6793 16.832 34.6793 7.472 34.7753 6.44C34.7753 6.44 35.2553 4.808 33.5993 5.12ZM32.3273 10.952C30.6953 17.912 27.5513 15.416 27.5513 15.416C25.4393 12.92 26.5193 9.584 26.5193 9.584C28.0073 5.6 33.4553 5.744 33.4553 5.744C33.0953 8.096 32.3273 10.952 32.3273 10.952ZM36.5447 5.84L36.4007 16.88L38.0567 16.952L37.9127 8.936C37.9127 8.936 38.1767 6.848 39.8567 5.84C39.8567 5.84 41.9447 4.808 43.1927 6.344C43.1927 6.344 43.8887 6.968 43.7447 9.704L43.4327 16.856L44.7047 16.952L44.7767 7.928C44.7767 7.928 44.3447 4.832 40.9127 4.976C40.9127 4.976 38.9927 4.952 37.9127 6.68V5.672C37.9127 5.672 36.9287 4.52 36.5447 5.84ZM55.2405 1.712C55.1925 0.823999 53.6565 0.727999 53.6325 1.616C53.6085 2.504 53.6325 5.192 53.6325 5.192C53.6325 5.192 48.2325 2.912 46.4325 11.048C46.4325 11.048 45.7125 17.288 51.3045 17.288C51.3045 17.288 52.4805 17.024 52.9845 15.56L52.9365 16.832H54.3285C54.3285 16.832 55.2885 2.6 55.2405 1.712ZM52.8165 14.312C50.4165 19.04 48.2805 14.912 48.2805 14.912C46.6245 11.192 49.0005 7.808 49.0005 7.808C50.9205 4.64 53.5845 6.248 53.5845 6.248C53.4405 13.04 52.8165 14.312 52.8165 14.312ZM65.1227 5.12C65.1227 5.12 56.0747 3.536 56.6747 12.656C56.6747 12.656 58.0427 18.56 62.3147 16.064C62.3147 16.064 63.4907 15.656 64.8347 11.6C64.8347 11.6 64.6187 15.968 64.9307 16.688L66.2027 16.832C66.2027 16.832 66.2027 7.472 66.2987 6.44C66.2987 6.44 66.7787 4.808 65.1227 5.12ZM63.8507 10.952C62.2187 17.912 59.0747 15.416 59.0747 15.416C56.9627 12.92 58.0427 9.584 58.0427 9.584C59.5307 5.6 64.9787 5.744 64.9787 5.744C64.6187 8.096 63.8507 10.952 63.8507 10.952Z" fill="#D2D2D2"/>
</svg>

<svg xmlns="http://www.w3.org/2000/svg" fill="none" width="67" height="20" viewBox="0 0 67 20"><path d="M5.376.464S4.992.224 3.984.392L.336 16.544s.744.24 1.176.12l1.152-5.784 4.656-.192 1.56 6.216s.768.048 1.272-.216L5.376.464ZM2.88 9.944l1.872-7.848L7.2 9.824l-4.32.12Zm8.722-4.416.168 11.304 1.56-.024s-.552-6.912.696-9.576c0 0 1.992-3.696 3.096.864l-.24 8.544 1.32-.048.096-8.568s2.328-4.68 3.96 0c0 0 .312 5.28.024 8.952h1.296v-.144l-.216-8.568s-.648-5.832-5.448-1.584c0 0-2.424-3.84-4.968.096l-.072-1.368s-.672-.936-1.272.12Zm21.997-.408s-9.048-1.584-8.448 7.536c0 0 1.368 5.904 5.64 3.408 0 0 1.176-.408 2.52-4.464 0 0-.216 4.368.096 5.088l1.272.144s0-9.36.096-10.392c0 0 .48-1.632-1.176-1.32Zm-1.272 5.832c-1.632 6.96-4.776 4.464-4.776 4.464-2.112-2.496-1.032-5.832-1.032-5.832 1.488-3.984 6.936-3.84 6.936-3.84-.36 2.352-1.128 5.208-1.128 5.208Zm4.218-5.112L36.4 16.88l1.656.072-.144-8.016s.264-2.088 1.944-3.096c0 0 2.088-1.032 3.336.504 0 0 .696.624.552 3.36l-.312 7.152 1.272.096.072-9.024s-.432-3.096-3.864-2.952c0 0-1.92-.024-3 1.704V5.672s-.984-1.152-1.368.168ZM55.24 1.712c-.047-.888-1.584-.984-1.608-.096-.023.888 0 3.576 0 3.576s-5.4-2.28-7.2 5.856c0 0-.72 6.24 4.872 6.24 0 0 1.176-.264 1.68-1.728l-.047 1.272h1.392s.96-14.232.911-15.12Zm-2.424 12.6c-2.4 4.728-4.535.6-4.535.6-1.657-3.72.72-7.104.72-7.104 1.92-3.168 4.584-1.56 4.584-1.56-.145 6.792-.769 8.064-.769 8.064ZM65.123 5.12s-9.048-1.584-8.448 7.536c0 0 1.368 5.904 5.64 3.408 0 0 1.176-.408 2.52-4.464 0 0-.216 4.368.096 5.088l1.272.144s0-9.36.096-10.392c0 0 .48-1.632-1.176-1.32Zm-1.272 5.832c-1.632 6.96-4.776 4.464-4.776 4.464-2.112-2.496-1.032-5.832-1.032-5.832 1.488-3.984 6.936-3.84 6.936-3.84-.36 2.352-1.128 5.208-1.128 5.208Z" fill="#D2D2D2"/></svg>
